X:1
T: Crowlullock
T: Crowhillock
C:A. Duff
R:Strathspey
Q: 128
K:A
M:4/4
L:1/16
|:E2|A3B Aa3 ec3 c3e|E3F E3c dcBA GB3|A3B Aa3 ec3 c3e|dcBA G3B AAA2 A2E2|
A3B Aa3 ec3 c3e|E3F E3c dcBA GB3|A3B Aa3 ec3 c3e|dcBA G3B AAA2 A2e2|
a3b a3e c3d e3c|d3e d3c B3c d3B|a3b a3e c3d e3c|dcBA G3B AAA2 A3f|
a3b a3e c3d e3c|d3e d3c B3c d3B|AE3 cA3 ec3 a3c|dcBA G3B AAA2 A2:|
